X:1
T: Blarney Pilgrim, The (also J-82; Irish)
C: M-13
M: 6/8
L: 1/8
R: jig
K: Dmix
D|"G"D3 DEG|"C"A3 ABc|"G"BAG "C"AGE|"Am"GEA "D7"GED|
"G"DED DEG|"C"A2G ABc|"G"BAG "C"AGE|"D7"GED D2:|
d|"G"ded dBG|"Am"AGA "Em"BGE|"G" ded dBG|"C"AGA "D7"GBd|
"G"g2e dBG|"Am"AGA "Em"BGE|"Em"B2G AGE|"D7"DED D2:|
G|"D"A2D "Em"B2D|"D" A2D ABc|"G"BAG "C"AGE|"Am"GEA "D7"GED|
"D"ADD "Em"BDD|"D"ADD ABc|"G"BAG "C"AGE|"D7"GED D2:|
